X:1
T:L'alma tua bellezza
T:L'alma tua bellezza
T:Giovanni Nauwach
T:Source : Libro primo di Arie passeggiate a una voce + BC ---Brescia---1623. Editor : André Vierendeels (28/10/16).
T:Notes : Original clefs : C1, F4 Figures in BC are notated in original print
T:©
T:©
T:©
T:©
C:Giovanni Nauwach
Z:©
%%score 1 2
L:1/8
Q:1/4=86
M:4/4
K:F
V:1 treble nm="Soprano" snm="S"
V:2 bass nm="MusicXML Part"
V:1
 z4 z2 c2 | c6 B2 | B3 A A4 | A4 dcBA | B2 cd _edcB | A4 z2 A2 | %6
w: A|l'al- ma|tua bel- lez-|za, Don- * * *||na, si|
 A/B/c/A/ d/c/B/A/ G/A/B/G/ A/B/c/A/ | =B2 c4 B2 | cccc d3 c | BAGG TG4 | F3 c F2 EF | %11
w: ras- * * * * * * * * * * * so- * * *|mi- * glia,|ci- o che nel mon- do'e|bel- lo'a- me- ra- vi-|glia, ma o- gni mor-|
 G4 z2 G/A/B/c/ | d2 c/B/c/A/ _e/d/c/B/ A2 | G4 F/E/D/E/ F/4G/4A/4B/4c/d/ | c6 TBA | A3 A A2 G2 | %16
w: tal bian- * * *|* * * * * * * * * chez-|za, de _ _ _ _ _ _ _ _ _|_ la man|bian- ca'il bian- co'a-|
 F/E/D/E/ F/E/F/G/ C/D/E/D/ E/F/C/D/ | E/4F/4G/4A/4B/4c/4d/4e/4 fF G4 | F4 A3 A | c2 FF G4 | %20
w: vo _ _ _ _ _ _ _ _ _ _ _ _ _ _ _|_ _ _ _ _ _ _ _ _ rio'ec- ce|de on- de|l'al- ma mia va-|
 GGcB A4 | B/A/B/G/ A/B/c/B/ A/G/F/E/ D/E/F/E/ | FD/E/ F/G/A/B/ c3 G | G4 F4 | A2 AB c4 | %25
w: ga, del bel can- dor|nel _ _ _ bel _ _ _ can- * * * * * * *|* * * * * * * dor s'ap-|pa- ga,|che'n te si fin-|
 F/E/F/D/ A/G/F/E/ D/E/F/G/ A/G/G/F/4E/4 | G6 GA | B2 AB c4- | c2 A/B/G/A/ F/G/E/F/ D/E/C/D/ | %29
w: ge'o _ _ _ cre- * * * * * * * * * * * *|de, co- me|can- di- da man,|_ can- * * * * * * * * * * *|
 E/F/D/E/ F/G/E/F/ G/F/G/A/ F/G/A/B/ | G/A/F/G/ C/D/E/F/ G/C/D/E/ F/G/A/B/ | c/d/e/f/ GG G4 | %32
w: ||* * * * di- da fe-|
 !fermata!F8 |] %33
w: de.|
V:2
"^BC" z4 F,4 | F,4 G,4 | G,4 F,2 E,2 | D,2 C,2 B,,4 |"^b" _E,2 D,2 C,4 | F,4 F,4 | F,4 _E,2 F,2 | %7
"^-natural""^3443" G,8 | C,4 B,,4 | _E,4 C,4 | F,,8 | C,2 D,2 _E,4 |"^b""^#" B,,4 C,2 D,2 | %13
 G,,2 A,,2 B,,4 | C,8 | D,2 E,2 F,2 E,2 | D,8- | D,4 C,4 | F,,4 F,4 | F,4 C,2 D,2 | _E,4 F,4 | %21
 G,2 F,2 F,4 | F,4 C,4- | C,4 F,,4 | F,4 F,2 E,2 | D,8 | C,2 D,2 _E,4 | _E,4 C,4 | C,8- | C,8 | %30
 C,8- | C,8 | !fermata!F,,8 |] %33

